tools/download-figma-icons/icons/solid/infothek.svg

<svg width="24" height="24" viewBox="0 0 24 24" fill="none" xmlns="http://www.w3.org/2000/svg">
<path d="M12 0C8.81745 0 5.7652 1.26428 3.51477 3.51472C1.26433 5.76516 4.78443e-05 8.8174 4.78443e-05 12C-0.00633317 14.2474 0.625687 16.4503 1.82255 18.3525L0.750048 22.305C0.707325 22.4365 0.701806 22.5773 0.734099 22.7118C0.766393 22.8463 0.835242 22.9692 0.933037 23.067C1.03083 23.1648 1.15376 23.2337 1.28824 23.2659C1.42272 23.2982 1.56351 23.2927 1.69505 23.25L5.64755 22.2C7.55209 23.389 9.75489 24.0131 12 24C15.1826 24 18.2349 22.7357 20.4853 20.4853C22.7358 18.2348 24 15.1826 24 12C24 8.8174 22.7358 5.76516 20.4853 3.51472C18.2349 1.26428 15.1826 0 12 0V0ZM12 6C12.2967 6 12.5867 6.08797 12.8334 6.2528C13.0801 6.41762 13.2723 6.65189 13.3859 6.92597C13.4994 7.20006 13.5291 7.50166 13.4712 7.79264C13.4133 8.08361 13.2705 8.35088 13.0607 8.56066C12.8509 8.77044 12.5837 8.9133 12.2927 8.97118C12.0017 9.02906 11.7001 8.99935 11.426 8.88582C11.1519 8.77229 10.9177 8.58003 10.7528 8.33335C10.588 8.08668 10.5 7.79667 10.5 7.5C10.5 7.10218 10.6581 6.72064 10.9394 6.43934C11.2207 6.15804 11.6022 6 12 6ZM13.5 18H10.5C10.3011 18 10.1104 17.921 9.96972 17.7803C9.82907 17.6397 9.75005 17.4489 9.75005 17.25C9.75005 17.0511 9.82907 16.8603 9.96972 16.7197C10.1104 16.579 10.3011 16.5 10.5 16.5H10.875V12H10.5C10.3011 12 10.1104 11.921 9.96972 11.7803C9.82907 11.6397 9.75005 11.4489 9.75005 11.25C9.75005 11.0511 9.82907 10.8603 9.96972 10.7197C10.1104 10.579 10.3011 10.5 10.5 10.5H12.75C12.8475 10.5 12.941 10.5387 13.0099 10.6076C13.0788 10.6766 13.1175 10.77 13.1175 10.8675V16.5H13.5C13.699 16.5 13.8897 16.579 14.0304 16.7197C14.171 16.8603 14.25 17.0511 14.25 17.25C14.25 17.4489 14.171 17.6397 14.0304 17.7803C13.8897 17.921 13.699 18 13.5 18Z" fill="black"/>
</svg>

<svg xmlns="http://www.w3.org/2000/svg" width="24" height="24" fill="none" viewBox="0 0 24 24"><path fill="currentColor" d="M12 0A12 12 0 0 0 0 12a11.87 11.87 0 0 0 1.823 6.352L.75 22.306a.75.75 0 0 0 .945.945l3.953-1.05A11.87 11.87 0 0 0 12 24a12 12 0 0 0 0-24m0 6a1.5 1.5 0 1 1 0 3 1.5 1.5 0 0 1 0-3m1.5 12h-3a.75.75 0 1 1 0-1.5h.375V12H10.5a.75.75 0 1 1 0-1.5h2.25a.37.37 0 0 1 .367.367V16.5h.383a.75.75 0 1 1 0 1.5"/></svg>
